X: 22856
T: Lark In The Morning, The
R: jig
M: 6/8
K: Dmajor
~A3{c}AdB|~A3 D2{d}A|AFA f+slide+ge|fdB {d}BAF|
~A3{c}AdB|~A3 D2{d}A|gfe fed|edB BAF:|
Adf ~a3|abf afd|Adf agf|gfe fdB|
Adf ~a3|abf afd|fge fed|edB BAF:|

